design-system/icons/open_in_new--labs-icons.svg

<svg width="22" height="22" viewBox="0 0 22 22" fill="none" xmlns="http://www.w3.org/2000/svg">
<mask id="mask0_316_64" style="mask-type:alpha" maskUnits="userSpaceOnUse" x="0" y="0" width="22" height="22">
<rect x="0.416504" width="21.0833" height="21.0833" fill="#D9D9D9"/>
</mask>
<g mask="url(#mask0_316_64)">
<path d="M4.67707 19.1507C4.03681 19.1507 3.48879 18.9227 3.03301 18.4668C2.57708 18.011 2.34912 17.463 2.34912 16.8227V4.26059C2.34912 3.62048 2.57708 3.07246 3.03301 2.61653C3.48879 2.1606 4.03681 1.93264 4.67707 1.93264H10.2114C10.5336 1.93264 10.8081 2.04611 11.035 2.27305C11.262 2.49999 11.3754 2.77451 11.3754 3.09662C11.3754 3.41872 11.262 3.69324 11.035 3.92018C10.8081 4.14712 10.5336 4.26059 10.2114 4.26059H4.67707V16.8227H17.2392V11.2884C17.2392 10.9663 17.3527 10.6917 17.5796 10.4648C17.8066 10.2379 18.0811 10.1244 18.4032 10.1244C18.7253 10.1244 18.9998 10.2379 19.2268 10.4648C19.4537 10.6917 19.5672 10.9663 19.5672 11.2884V16.8227C19.5672 17.463 19.3392 18.011 18.8833 18.4668C18.4274 18.9227 17.8793 19.1507 17.2392 19.1507H4.67707ZM17.2392 5.88577L9.68436 13.4406C9.46475 13.6602 9.19388 13.7701 8.87178 13.7701C8.54967 13.7701 8.27881 13.6602 8.05919 13.4406C7.83957 13.221 7.72976 12.9501 7.72976 12.628C7.72976 12.3059 7.83957 12.0351 8.05919 11.8155L15.6141 4.26059H14.2963C13.9742 4.26059 13.6997 4.14712 13.4728 3.92018C13.2458 3.69324 13.1324 3.41872 13.1324 3.09662C13.1324 2.77451 13.2458 2.49999 13.4728 2.27305C13.6997 2.04611 13.9742 1.93264 14.2963 1.93264H18.4032C18.7253 1.93264 18.9998 2.04611 19.2268 2.27305C19.4537 2.49999 19.5672 2.77451 19.5672 3.09662V7.20347C19.5672 7.52558 19.4537 7.8001 19.2268 8.02704C18.9998 8.25398 18.7253 8.36745 18.4032 8.36745C18.0811 8.36745 17.8066 8.25398 17.5796 8.02704C17.3527 7.8001 17.2392 7.52558 17.2392 7.20347V5.88577Z" fill="#1C1B1F"/>
</g>
</svg>

<svg xmlns="http://www.w3.org/2000/svg" width="22" height="22" fill="none" viewBox="0 0 22 22"><mask id="a" width="22" height="22" x="0" y="0" maskUnits="userSpaceOnUse" style="mask-type:alpha"><path fill="#d9d9d9" d="M.417 0H21.5v21.083H.417z"/></mask><g mask="url(#a)"><path fill="#1c1b1f" d="M4.677 19.15q-.96 0-1.644-.683a2.24 2.24 0 0 1-.684-1.644V4.26q0-.96.684-1.644a2.24 2.24 0 0 1 1.644-.684h5.534q.484 0 .824.34t.34.824-.34.823q-.34.34-.824.34H4.677v12.563H17.24v-5.535q0-.483.34-.823.342-.34.824-.34.483 0 .824.34t.34.823v5.535q0 .96-.684 1.644a2.24 2.24 0 0 1-1.644.684zM17.24 5.887 9.684 13.44q-.33.33-.812.33t-.813-.33q-.33-.33-.33-.813t.33-.812l7.555-7.555h-1.318q-.483 0-.823-.34a1.12 1.12 0 0 1-.34-.824q0-.483.34-.824t.823-.34h4.107q.483 0 .824.34t.34.824v4.106q0 .484-.34.824t-.824.34-.823-.34a1.12 1.12 0 0 1-.34-.824z"/></g></svg>
